X:1
T: Stewart Gillies' Reel
C:Bruce Shawyer
R:Reel
Q:232
K:A
M:4/4
L:1/8
|:E2|"A"A2AB cBAE|"D"FGAF "A"E2A2|"D"FGAF "A"E2A2|"Bm"dFcF "E7"B2E2|
"A"A2AB cBAE|"D"FGAF "A"E2A2|"D"FGAF "E7"GABG|"A"A2c2 A2e2|
"A"a2ag "D"fedf|"E7"e2ed "A"cBAc|"Bm"defd "A"cdec|"E7"B2Bc B2e2|
"A"a2ag "D"fedf|"E7"e2ed "A"cBAc|"Bm"defd "A"cdec|"E7"BcdB "A"A2:|
